public/img/assets/icons/sunrise.svg

<svg width="24" height="24" viewBox="0 0 24 24" fill="none" xmlns="http://www.w3.org/2000/svg">
<path fill-rule="evenodd" clip-rule="evenodd" d="M12.2871 3.30691C12.1987 3.27024 12.1018 3.25 12.0001 3.25C11.8984 3.25 11.8014 3.27024 11.713 3.30691C11.6245 3.34351 11.5416 3.39776 11.4697 3.46967L11.4696 3.46977L9.46973 5.46967C9.17684 5.76256 9.17684 6.23744 9.46973 6.53033C9.76262 6.82322 10.2375 6.82322 10.5304 6.53033L11.2501 5.81066V8C11.2501 8.41421 11.5858 8.75 12.0001 8.75C12.4143 8.75 12.7501 8.41421 12.7501 8V5.81066L13.4697 6.53033C13.7626 6.82322 14.2375 6.82322 14.5304 6.53033C14.8233 6.23744 14.8233 5.76256 14.5304 5.46967L12.5304 3.46967C12.4585 3.39776 12.3756 3.34351 12.2871 3.30691ZM12 10.4962C12.8427 10.4961 13.6705 10.7178 14.4003 11.1391C15.1301 11.5603 15.7361 12.1662 16.1575 12.8959C16.5788 13.6257 16.8007 14.4534 16.8007 15.2961C16.8008 16.1387 16.579 16.9665 16.1576 17.6962H19.4C19.6122 17.6962 19.8157 17.7805 19.9657 17.9306C20.1158 18.0806 20.2001 18.2841 20.2001 18.4962C20.2001 18.7084 20.1158 18.9119 19.9657 19.0619C19.8157 19.212 19.6122 19.2962 19.4 19.2962H4.60005C4.38788 19.2962 4.18439 19.212 4.03436 19.0619C3.88433 18.9119 3.80005 18.7084 3.80005 18.4962C3.80005 18.2841 3.88433 18.0806 4.03436 17.9306C4.18439 17.7805 4.38788 17.6962 4.60005 17.6962H7.84245C7.42113 16.9665 7.19934 16.1387 7.19937 15.2961C7.1994 14.4534 7.42125 13.6257 7.84262 12.8959C8.26399 12.1662 8.87002 11.5603 9.59981 11.1391C10.3296 10.7178 11.1574 10.4961 12 10.4962ZM12 12.0962C11.3651 12.0962 10.7446 12.285 10.2173 12.6387C9.69 12.9924 9.27984 13.4949 9.03899 14.0823C8.79814 14.6698 8.73749 15.3156 8.86475 15.9376C8.99201 16.5597 9.30143 17.1298 9.75365 17.5754L9.88405 17.6954H14.116C14.6032 17.2655 14.9479 16.6974 15.1044 16.0668C15.2608 15.4361 15.2216 14.7728 14.9919 14.165C14.7622 13.5572 14.3529 13.0337 13.8185 12.6642C13.2841 12.2946 12.6498 12.0965 12 12.0962Z" fill="#6A9CFF"/>
</svg>

<svg xmlns="http://www.w3.org/2000/svg" fill="none" viewBox="0 0 24 24"><path d="M12.29 3.3a.75.75 0 0 0-.82.17l-2 2a.75.75 0 0 0 1.06 1.06l.72-.72v2.2a.75.75 0 1 0 1.5 0V5.8l.72.72a.75.75 0 0 0 1.06-1.06l-2-2a.75.75 0 0 0-.24-.16ZM12 10.5a4.8 4.8 0 0 1 4.16 7.2h3.24a.8.8 0 1 1 0 1.6H4.6a.8.8 0 1 1 0-1.6h3.24A4.8 4.8 0 0 1 12 10.5Zm0 1.6a3.2 3.2 0 0 0-2.25 5.48l.13.12h4.24A3.2 3.2 0 0 0 12 12.1Z" fill="#6A9CFF" fill-rule="evenodd" clip-rule="evenodd"/></svg>
